src/components/Home/Core/assets/core-audience.svg

<svg width="86" height="74" viewBox="0 0 86 74" fill="none" xmlns="http://www.w3.org/2000/svg">
<path d="M55.9694 23.4515C50.162 23.4515 45.4375 18.727 45.4375 12.9196C45.4375 7.11219 50.162 2.3877 55.9694 2.3877C61.7767 2.3877 66.5013 7.11219 66.5013 12.9196C66.5013 18.7256 61.7767 23.4515 55.9694 23.4515Z" fill="white"/>
<path d="M71.49 46.4033H40.4444C39.4427 46.4033 38.6289 45.5894 38.6289 44.5878V37.2726C38.6289 32.5587 41.807 28.4256 46.3583 27.2229L46.3757 27.2175C46.6368 27.1509 47.6704 26.9232 48.002 26.8593C50.2357 26.4317 53.0648 26.1973 55.9672 26.1973C58.7856 26.1973 61.5495 26.421 63.7499 26.826C64.1482 26.8992 65.5294 27.2069 65.913 27.3188L65.941 27.3268C68.0362 27.9675 69.9076 29.2808 71.2236 31.031C72.5862 32.8425 73.3055 35.0003 73.3055 37.2726V44.5878C73.3055 45.5894 72.4903 46.4033 71.49 46.4033Z" fill="white"/>
<path d="M30.935 22.409C24.756 22.409 19.7305 17.3822 19.7305 11.2045C19.7305 5.02551 24.7573 0 30.935 0C37.1127 0 42.1395 5.02685 42.1395 11.2045C42.1409 17.3822 37.114 22.409 30.935 22.409Z" fill="#B69538"/>
<path d="M55.9694 23.4515C50.162 23.4515 45.4375 18.727 45.4375 12.9196C45.4375 7.11219 50.162 2.3877 55.9694 2.3877C61.7767 2.3877 66.5013 7.11219 66.5013 12.9196C66.5013 18.7256 61.7767 23.4515 55.9694 23.4515ZM55.9694 5.58309C51.9242 5.58309 48.6342 8.87438 48.6342 12.9182C48.6342 16.9634 51.9255 20.2534 55.9694 20.2534C60.0132 20.2534 63.3046 16.9621 63.3046 12.9182C63.3046 8.87438 60.0146 5.58309 55.9694 5.58309Z" fill="#4C4C4C"/>
<path d="M71.49 46.4033H40.4444C39.4427 46.4033 38.6289 45.5894 38.6289 44.5878V37.2726C38.6289 32.5587 41.807 28.4256 46.3583 27.2229L46.3757 27.2175C46.6368 27.1509 47.6704 26.9232 48.002 26.8593C50.2357 26.4317 53.0648 26.1973 55.9672 26.1973C58.7856 26.1973 61.5495 26.421 63.7499 26.826C64.1482 26.8992 65.5294 27.2069 65.913 27.3188L65.941 27.3268C68.0362 27.9675 69.9076 29.2808 71.2236 31.031C72.5862 32.8425 73.3055 35.0003 73.3055 37.2726V44.5878C73.3055 45.5894 72.4903 46.4033 71.49 46.4033ZM41.8256 43.2065H70.1087V37.2726C70.1087 35.6995 69.6106 34.2051 68.6689 32.9517C67.7565 31.7383 66.4605 30.8272 65.018 30.3863L65.0126 30.385C64.7889 30.3197 63.5248 30.0347 63.1705 29.9694C61.1552 29.5978 58.5965 29.394 55.9659 29.394C53.2593 29.394 50.6433 29.6084 48.6014 30C48.2937 30.0586 47.3373 30.2718 47.1708 30.3144C44.0234 31.1469 41.8243 34.0079 41.8243 37.2726V43.2065H41.8256Z" fill="#4C4C4C"/>
<path d="M47.6271 49.466H14.2426C11.5427 49.466 9.34766 47.2695 9.34766 44.571V36.8642C9.34766 30.4601 13.6673 24.8471 19.8503 23.2115L19.8942 23.2008C20.2246 23.1156 21.3967 22.8572 21.8176 22.7772C24.3976 22.2844 27.6343 22.0127 30.9349 22.0127C34.1383 22.0127 37.3004 22.2698 39.8365 22.7373C40.3133 22.8252 41.901 23.1755 42.4485 23.3353L42.5311 23.3606C45.3615 24.2264 47.9042 26.0099 49.6904 28.3848C51.5418 30.8463 52.5208 33.7793 52.5208 36.8655V44.5723C52.5235 47.2709 50.327 49.466 47.6271 49.466Z" fill="white"/>
<path d="M30.935 22.409C24.756 22.409 19.7305 17.3822 19.7305 11.2045C19.7305 5.02551 24.7573 0 30.935 0C37.1127 0 42.1395 5.02685 42.1395 11.2045C42.1409 17.3822 37.114 22.409 30.935 22.409ZM30.935 3.19539C26.5195 3.19539 22.9272 6.78771 22.9272 11.2032C22.9272 15.6187 26.5195 19.211 30.935 19.211C35.3505 19.211 38.9428 15.6187 38.9428 11.2032C38.9428 6.78771 35.3518 3.19539 30.935 3.19539Z" fill="#4C4C4C"/>
<path d="M47.6301 46.4037H14.2455C13.2359 46.4037 12.4141 45.5819 12.4141 44.5722V36.8655C12.4141 31.8506 15.7946 27.4551 20.6363 26.175L20.651 26.171C20.932 26.0991 22.0389 25.8554 22.3959 25.7861C24.7908 25.3279 27.825 25.0762 30.9378 25.0762C33.9614 25.0762 36.9263 25.3159 39.2853 25.7501C39.7128 25.8287 41.19 26.1591 41.6003 26.2776L41.6322 26.2869C43.8566 26.9662 45.8479 28.3648 47.2478 30.2256C48.697 32.1529 49.4629 34.4479 49.4629 36.8655V44.5722C49.4629 45.5819 48.641 46.4037 47.6301 46.4037Z" fill="#B69538"/>
<path d="M47.6301 46.4037H14.2455C13.2359 46.4037 12.4141 45.5819 12.4141 44.5722V36.8655C12.4141 31.8506 15.7946 27.4551 20.6363 26.175L20.651 26.171C20.932 26.0991 22.0389 25.8554 22.3959 25.7861C24.7908 25.3279 27.825 25.0762 30.9378 25.0762C33.9614 25.0762 36.9263 25.3159 39.2853 25.7501C39.7128 25.8287 41.19 26.1591 41.6003 26.2776L41.6322 26.2869C43.8566 26.9662 45.8479 28.3648 47.2478 30.2256C48.697 32.1529 49.4629 34.4479 49.4629 36.8655V44.5722C49.4629 45.5819 48.641 46.4037 47.6301 46.4037ZM15.6108 43.207H46.2662V36.8655C46.2662 35.1472 45.7227 33.5155 44.6931 32.1476C43.6968 30.8223 42.2809 29.8273 40.7065 29.3465C40.4401 29.2705 39.0882 28.9642 38.7072 28.8936C36.5334 28.494 33.7736 28.2729 30.9391 28.2729C28.0208 28.2729 25.201 28.5047 22.9979 28.9256C22.6636 28.9895 21.6327 29.2186 21.4528 29.2652L21.4475 29.2665C18.011 30.1776 15.6121 33.3011 15.6121 36.8641V43.207H15.6108Z" fill="#4C4C4C"/>
<path d="M76.3593 49.4664H9.36112C6.78642 49.4664 4.69922 47.3792 4.69922 44.8045C4.69922 42.2298 6.78642 40.1426 9.36112 40.1426H76.3593C78.934 40.1426 81.0212 42.2298 81.0212 44.8045C81.0212 47.3792 78.934 49.4664 76.3593 49.4664Z" fill="white"/>
<path d="M44.4584 44.0938H41.2617V64.1239H44.4584V44.0938Z" fill="#4C4C4C"/>
<path d="M61.7369 68.8564L51.3555 57.1644V44.0938H54.5522V55.951L64.1277 66.7333L61.7369 68.8564Z" fill="#4C4C4C"/>
<path d="M47.4804 68.9247C48.082 66.3768 46.5042 63.8235 43.9563 63.2219C41.4083 62.6202 38.8551 64.198 38.2534 66.746C37.6518 69.2939 39.2296 71.8471 41.7775 72.4487C44.3255 73.0504 46.8787 71.4726 47.4804 68.9247Z" fill="#B69538"/>
<path d="M42.858 73.9992C39.4361 73.9992 36.6523 71.2154 36.6523 67.7936C36.6523 64.3717 39.4361 61.5879 42.858 61.5879C46.2798 61.5879 49.0636 64.3717 49.0636 67.7936C49.0636 71.2154 46.2798 73.9992 42.858 73.9992ZM42.858 64.5182C41.0518 64.5182 39.5827 65.9874 39.5827 67.7936C39.5827 69.5997 41.0518 71.0689 42.858 71.0689C44.6641 71.0689 46.1333 69.5997 46.1333 67.7936C46.1333 65.9874 44.6641 64.5182 42.858 64.5182Z" fill="#4C4C4C"/>
<path d="M67.5583 68.9257C68.16 66.3777 66.5822 63.8245 64.0343 63.2229C61.4864 62.6213 58.9332 64.199 58.3315 66.7469C57.7299 69.2949 59.3077 71.8481 61.8556 72.4497C64.4035 73.0514 66.9567 71.4736 67.5583 68.9257Z" fill="#B69538"/>
<path d="M62.9322 73.9992C59.5104 73.9992 56.7266 71.2154 56.7266 67.7936C56.7266 64.3717 59.5104 61.5879 62.9322 61.5879C66.354 61.5879 69.1378 64.3717 69.1378 67.7936C69.1378 71.2154 66.354 73.9992 62.9322 73.9992ZM62.9322 64.5182C61.126 64.5182 59.6569 65.9874 59.6569 67.7936C59.6569 69.5997 61.126 71.0689 62.9322 71.0689C64.7383 71.0689 66.2075 69.5997 66.2075 67.7936C66.2075 65.9874 64.7383 64.5182 62.9322 64.5182Z" fill="#4C4C4C"/>
<path d="M78.9852 58.2843H63.1055V43.542H66.3022V55.0875H78.9852V58.2843Z" fill="#4C4C4C"/>
<path d="M80.8128 61.0615C83.2316 60.0595 84.3803 57.2864 83.3783 54.8676C82.3764 52.4488 79.6033 51.3001 77.1844 52.302C74.7655 53.304 73.6169 56.0771 74.6189 58.4959C75.6208 60.9148 78.3939 62.0634 80.8128 61.0615Z" fill="#B69538"/>
<path d="M78.983 62.8917C75.5612 62.8917 72.7773 60.108 72.7773 56.6861C72.7773 53.2643 75.5612 50.4805 78.983 50.4805C82.4048 50.4805 85.1886 53.2643 85.1886 56.6861C85.1886 60.108 82.4048 62.8917 78.983 62.8917ZM78.983 53.4121C77.1768 53.4121 75.7077 54.8813 75.7077 56.6875C75.7077 58.4936 77.1768 59.9627 78.983 59.9627C80.7892 59.9627 82.2583 58.4936 82.2583 56.6875C82.2583 54.8813 80.7892 53.4121 78.983 53.4121Z" fill="#4C4C4C"/>
<path d="M24.0511 68.8564L21.6602 66.7333L31.2344 55.951V44.0938H34.4312V57.1644L24.0511 68.8564Z" fill="#4C4C4C"/>
<path d="M23.624 72.4684C26.2083 72.0489 27.9633 69.6139 27.5439 67.0296C27.1245 64.4453 24.6895 62.6903 22.1051 63.1097C19.5208 63.5291 17.7658 65.9642 18.1852 68.5485C18.6046 71.1328 21.0397 72.8878 23.624 72.4684Z" fill="#B69538"/>
<path d="M22.8541 73.9992C19.4323 73.9992 16.6484 71.2154 16.6484 67.7936C16.6484 64.3717 19.4323 61.5879 22.8541 61.5879C26.2759 61.5879 29.0597 64.3717 29.0597 67.7936C29.0597 71.2154 26.2759 73.9992 22.8541 73.9992ZM22.8541 64.5182C21.048 64.5182 19.5788 65.9874 19.5788 67.7936C19.5788 69.5997 21.048 71.0689 22.8541 71.0689C24.6603 71.0689 26.1294 69.5997 26.1294 67.7936C26.1294 65.9874 24.6603 64.5182 22.8541 64.5182Z" fill="#4C4C4C"/>
<path d="M22.6804 58.2843H6.80078V55.0875H19.4837V43.542H22.6804V58.2843Z" fill="#4C4C4C"/>
<path d="M7.88197 61.2625C10.4299 60.6609 12.0076 58.1077 11.406 55.5597C10.8044 53.0118 8.25117 51.434 5.70326 52.0356C3.15535 52.6373 1.57757 55.1905 2.1792 57.7385C2.78084 60.2864 5.33405 61.8642 7.88197 61.2625Z" fill="#B69538"/>
<path d="M6.80333 62.8917C3.38149 62.8917 0.597656 60.108 0.597656 56.6861C0.597656 53.2643 3.38149 50.4805 6.80333 50.4805C10.2252 50.4805 13.009 53.2643 13.009 56.6861C13.009 60.108 10.2238 62.8917 6.80333 62.8917ZM6.80333 53.4121C4.99717 53.4121 3.52799 54.8813 3.52799 56.6875C3.52799 58.4936 4.99717 59.9627 6.80333 59.9627C8.60948 59.9627 10.0786 58.4936 10.0786 56.6875C10.0786 54.8813 8.60815 53.4121 6.80333 53.4121Z" fill="#4C4C4C"/>
<path d="M77.1415 43.207H8.57031V46.4038H77.1415V43.207Z" fill="#4C4C4C"/>
</svg>

<svg width="86" height="74" fill="none" xmlns="http://www.w3.org/2000/svg"><path d="M55.97 23.451c-5.808 0-10.532-4.724-10.532-10.531 0-5.808 4.724-10.532 10.531-10.532 5.808 0 10.532 4.724 10.532 10.532 0 5.806-4.724 10.531-10.532 10.531zm15.52 22.952H40.444a1.817 1.817 0 0 1-1.815-1.815v-7.315c0-4.714 3.178-8.847 7.73-10.05l.017-.005a51.882 51.882 0 0 1 1.626-.359c2.234-.427 5.063-.662 7.965-.662 2.819 0 5.583.224 7.783.629.398.073 1.78.38 2.163.493l.028.008a10.489 10.489 0 0 1 5.283 3.704 10.302 10.302 0 0 1 2.081 6.242v7.315a1.818 1.818 0 0 1-1.815 1.815z" fill="#fff"/><path d="M30.935 22.409c-6.179 0-11.204-5.027-11.204-11.204C19.73 5.024 24.756 0 30.934 0c6.178 0 11.204 5.027 11.204 11.204.002 6.178-5.025 11.205-11.204 11.205z" fill="#B69538"/><path d="M55.97 23.451c-5.808 0-10.532-4.724-10.532-10.531 0-5.808 4.724-10.532 10.531-10.532 5.808 0 10.532 4.724 10.532 10.532 0 5.806-4.724 10.531-10.532 10.531zm0-17.868c-4.046 0-7.336 3.291-7.336 7.335 0 4.045 3.291 7.335 7.335 7.335 4.044 0 7.336-3.29 7.336-7.335 0-4.044-3.29-7.335-7.336-7.335zm15.52 40.82H40.444a1.817 1.817 0 0 1-1.815-1.815v-7.315c0-4.714 3.178-8.847 7.73-10.05l.017-.005a51.882 51.882 0 0 1 1.626-.359c2.234-.427 5.063-.662 7.965-.662 2.819 0 5.583.224 7.783.629.398.073 1.78.38 2.163.493l.028.008a10.489 10.489 0 0 1 5.283 3.704 10.302 10.302 0 0 1 2.081 6.242v7.315a1.818 1.818 0 0 1-1.815 1.815zm-29.664-3.197h28.283v-5.933a7.14 7.14 0 0 0-1.44-4.321 7.26 7.26 0 0 0-3.651-2.566l-.005-.001a41.256 41.256 0 0 0-1.843-.416c-2.015-.371-4.574-.575-7.204-.575-2.707 0-5.323.214-7.365.606a48.46 48.46 0 0 0-1.43.314 7.199 7.199 0 0 0-5.347 6.959v5.933h.002z" fill="#4C4C4C"/><path d="M47.627 49.466H14.243a4.9 4.9 0 0 1-4.895-4.895v-7.707c0-6.404 4.32-12.017 10.502-13.652l.044-.011c.33-.085 1.503-.344 1.924-.424 2.58-.493 5.816-.764 9.117-.764 3.203 0 6.365.257 8.902.724.476.088 2.064.439 2.611.598l.083.026a14.24 14.24 0 0 1 7.16 5.024 14.003 14.003 0 0 1 2.83 8.48v7.707a4.896 4.896 0 0 1-4.894 4.894z" fill="#fff"/><path d="M30.935 22.409c-6.179 0-11.204-5.027-11.204-11.204C19.73 5.024 24.756 0 30.934 0c6.178 0 11.204 5.027 11.204 11.204.002 6.178-5.025 11.205-11.204 11.205zm0-19.214c-4.415 0-8.008 3.593-8.008 8.008 0 4.416 3.593 8.008 8.008 8.008 4.415 0 8.008-3.592 8.008-8.008 0-4.415-3.591-8.008-8.008-8.008z" fill="#4C4C4C"/><path d="M47.63 46.404H14.245a1.834 1.834 0 0 1-1.83-1.832v-7.707c0-5.014 3.38-9.41 8.221-10.69l.015-.004a56.231 56.231 0 0 1 1.745-.385c2.395-.458 5.429-.71 8.542-.71 3.023 0 5.988.24 8.347.674.428.079 1.905.41 2.315.528l.032.009a11.155 11.155 0 0 1 5.616 3.939 10.962 10.962 0 0 1 2.215 6.64v7.706c0 1.01-.822 1.832-1.833 1.832z" fill="#B69538"/><path d="M47.63 46.404H14.245a1.834 1.834 0 0 1-1.83-1.832v-7.707c0-5.014 3.38-9.41 8.221-10.69l.015-.004a56.231 56.231 0 0 1 1.745-.385c2.395-.458 5.429-.71 8.542-.71 3.023 0 5.988.24 8.347.674.428.079 1.905.41 2.315.528l.032.009a11.155 11.155 0 0 1 5.616 3.939 10.962 10.962 0 0 1 2.215 6.64v7.706c0 1.01-.822 1.832-1.833 1.832zm-32.02-3.197h30.656v-6.342c0-1.718-.543-3.35-1.573-4.717a7.924 7.924 0 0 0-3.986-2.802 45.73 45.73 0 0 0-2-.452c-2.174-.4-4.933-.621-7.768-.621-2.918 0-5.738.232-7.941.653a51.07 51.07 0 0 0-1.545.34h-.005a7.861 7.861 0 0 0-5.836 7.598v6.343h-.001z" fill="#4C4C4C"/><path d="M76.36 49.466H9.36a4.662 4.662 0 1 1 0-9.323H76.36a4.662 4.662 0 1 1 0 9.323z" fill="#fff"/><path d="M44.458 44.094h-3.196v20.03h3.196v-20.03zm17.279 24.762L51.355 57.164v-13.07h3.197V55.95l9.576 10.782-2.391 2.123z" fill="#4C4C4C"/><path d="M47.48 68.925a4.74 4.74 0 1 0-9.227-2.179 4.74 4.74 0 0 0 9.227 2.179z" fill="#B69538"/><path d="M42.858 74a6.213 6.213 0 0 1-6.206-6.206 6.213 6.213 0 0 1 6.206-6.206 6.213 6.213 0 0 1 6.206 6.206 6.213 6.213 0 0 1-6.206 6.205zm0-9.482a3.279 3.279 0 0 0-3.275 3.276 3.279 3.279 0 0 0 3.275 3.275 3.279 3.279 0 0 0 3.275-3.275 3.279 3.279 0 0 0-3.275-3.276z" fill="#4C4C4C"/><path d="M67.558 68.926a4.74 4.74 0 1 0-9.226-2.18 4.74 4.74 0 0 0 9.226 2.18z" fill="#B69538"/><path d="M62.932 74a6.213 6.213 0 0 1-6.205-6.206 6.213 6.213 0 0 1 6.205-6.206 6.213 6.213 0 0 1 6.206 6.206 6.213 6.213 0 0 1-6.206 6.205zm0-9.482a3.279 3.279 0 0 0-3.275 3.276 3.279 3.279 0 0 0 3.275 3.275 3.279 3.279 0 0 0 3.275-3.275 3.279 3.279 0 0 0-3.275-3.276zm16.053-6.234h-15.88V43.542h3.197v11.545h12.683v3.197z" fill="#4C4C4C"/><path d="M80.813 61.062a4.74 4.74 0 1 0-3.629-8.76 4.74 4.74 0 0 0 3.629 8.76z" fill="#B69538"/><path d="M78.983 62.892a6.213 6.213 0 0 1-6.206-6.206 6.213 6.213 0 0 1 6.206-6.206 6.213 6.213 0 0 1 6.206 6.206 6.213 6.213 0 0 1-6.206 6.206zm0-9.48a3.279 3.279 0 0 0-3.275 3.276 3.279 3.279 0 0 0 3.275 3.275 3.279 3.279 0 0 0 3.275-3.276 3.279 3.279 0 0 0-3.275-3.275zM24.051 68.856l-2.39-2.123 9.573-10.782V44.094h3.197v13.07l-10.38 11.692z" fill="#4C4C4C"/><path d="M23.624 72.468a4.74 4.74 0 1 0-1.52-9.358 4.74 4.74 0 0 0 1.52 9.358z" fill="#B69538"/><path d="M22.854 74a6.213 6.213 0 0 1-6.206-6.206 6.213 6.213 0 0 1 6.206-6.206 6.213 6.213 0 0 1 6.206 6.206 6.213 6.213 0 0 1-6.206 6.205zm0-9.482a3.279 3.279 0 0 0-3.275 3.276 3.279 3.279 0 0 0 3.275 3.275 3.279 3.279 0 0 0 3.275-3.275 3.279 3.279 0 0 0-3.275-3.276zm-.174-6.234H6.8v-3.197h12.684V43.542h3.196v14.742z" fill="#4C4C4C"/><path d="M7.882 61.263a4.74 4.74 0 1 0-2.179-9.227 4.74 4.74 0 0 0 2.179 9.227z" fill="#B69538"/><path d="M6.803 62.892a6.213 6.213 0 0 1-6.205-6.206 6.213 6.213 0 0 1 6.205-6.206 6.213 6.213 0 0 1 6.206 6.206 6.213 6.213 0 0 1-6.206 6.206zm0-9.48a3.279 3.279 0 0 0-3.275 3.276 3.279 3.279 0 0 0 3.275 3.275 3.279 3.279 0 0 0 3.276-3.276 3.28 3.28 0 0 0-3.276-3.275zm70.338-10.205H8.572v3.197h68.57v-3.197z" fill="#4C4C4C"/></svg>
